berloni/img/mouse-btn.svg

<svg width="21" height="41" viewBox="0 0 21 41" fill="none" xmlns="http://www.w3.org/2000/svg">
<rect x="1" y="1" width="18.7792" height="31.3068" rx="9.38961" stroke="#EE3425" stroke-opacity="0.2" stroke-width="2"/>
<path d="M12.1603 9.43691C12.1603 10.4192 11.3659 11.2125 10.3897 11.2125C9.41355 11.2125 8.61914 10.4192 8.61914 9.43691C8.61914 8.45459 9.41355 7.66135 10.3897 7.66135C11.3659 7.66135 12.1603 8.45459 12.1603 9.43691Z" stroke="#EE3425" stroke-opacity="0.2" stroke-width="2"/>
<path d="M6.93851 35.1272C6.5467 34.738 5.91354 34.7401 5.5243 35.1319C5.13506 35.5237 5.13714 36.1568 5.52894 36.5461L6.93851 35.1272ZM10.4245 40L9.71971 40.7094C9.90809 40.8966 10.1632 41.0011 10.4287 41C10.6942 40.9989 10.9484 40.8922 11.1352 40.7035L10.4245 40ZM15.2561 36.5401C15.6447 36.1476 15.6414 35.5144 15.2489 35.1259C14.8564 34.7374 14.2232 34.7406 13.8347 35.1332L15.2561 36.5401ZM5.52894 36.5461L9.71971 40.7094L11.1293 39.2906L6.93851 35.1272L5.52894 36.5461ZM11.1352 40.7035L15.2561 36.5401L13.8347 35.1332L9.71377 39.2965L11.1352 40.7035Z" fill="#EE3425" fill-opacity="0.2"/>
</svg>

<svg width="21" height="41" fill="none" xmlns="http://www.w3.org/2000/svg"><rect x="1" y="1" width="18.779" height="31.307" rx="9.39" stroke="#EE3425" stroke-opacity=".2" stroke-width="2"/><path d="M12.16 9.437c0 .982-.794 1.776-1.77 1.776s-1.77-.794-1.77-1.776.794-1.776 1.77-1.776 1.77.794 1.77 1.776z" stroke="#EE3425" stroke-opacity=".2" stroke-width="2"/><path d="M6.939 35.127a1 1 0 0 0-1.41 1.42l1.41-1.42zM10.425 40l-.705.71a1 1 0 0 0 1.415-.007l-.71-.703zm4.831-3.46a1 1 0 1 0-1.421-1.407l1.421 1.407zm-9.727.006l4.19 4.163 1.41-1.418-4.19-4.164-1.41 1.42zm5.606 4.157l4.121-4.163-1.421-1.407-4.121 4.163 1.421 1.407z" fill="#EE3425" fill-opacity=".2"/></svg>
